src/svgs/visually-impaired.svg

<svg xmlns="http://www.w3.org/2000/svg" viewBox="0 0 24 24" width="512" height="512"><path d="M18.365 8.463L21.9 4.929l-1.415-1.414-3.823 3.823-1.834 1.834-1.414 1.414a2 2 0 10-2.828 2.828l-1.414 1.414-1.834 1.834-3.823 3.823L4.929 21.9 9.3 17.527A8.472 8.472 0 0012 18a7.709 7.709 0 00.849-.056l7.642-7.644a19.8 19.8 0 00-2.126-1.837zM12 16a3.926 3.926 0 01-1.023-.149l2.437-2.437 2.437-2.437A3.926 3.926 0 0116 12a4 4 0 01-4 4zm10-4s-3.108 4.149-7.334 5.541l6.514-6.514c.526.581.82.973.82.973zM9.334 6.459l-6.513 6.513C2.3 12.4 2 12 2 12s3.108-4.149 7.334-5.541zm-3.71 9.089A19.434 19.434 0 013.508 13.7l7.643-7.643A7.709 7.709 0 0112 6a8.527 8.527 0 012.7.47l-1.677 1.679A3.926 3.926 0 0012 8a4 4 0 00-4 4 3.926 3.926 0 00.149 1.023z"/></svg>

<svg xmlns="http://www.w3.org/2000/svg" viewBox="0 0 24 24"><path d="M18.365,8.463,21.9,4.929,20.485,3.515,16.662,7.338,14.828,9.172l-1.414,1.414a2,2,0,1,0-2.828,2.828L9.172,14.828,7.338,16.662,3.515,20.485,4.929,21.9,9.3,17.527A8.472,8.472,0,0,0,12,18a7.709,7.709,0,0,0,.849-.056L20.491,10.3A19.8,19.8,0,0,0,18.365,8.463ZM12,16a3.926,3.926,0,0,1-1.023-.149l2.437-2.437h0l2.437-2.437A3.926,3.926,0,0,1,16,12,4,4,0,0,1,12,16Zm10-4s-3.108,4.149-7.334,5.541l6.514-6.514C21.706,11.608,22,12,22,12ZM9.334,6.459,2.821,12.972C2.3,12.4,2,12,2,12S5.108,7.851,9.334,6.459Zm-3.71,9.089A19.434,19.434,0,0,1,3.508,13.7l7.643-7.643A7.709,7.709,0,0,1,12,6a8.527,8.527,0,0,1,2.7.47L13.023,8.149A3.926,3.926,0,0,0,12,8a4,4,0,0,0-4,4,3.926,3.926,0,0,0,.149,1.023Z"/></svg>
